X: 3
T: Cantiga 412: Virgen Madre groriosa
N: harmony Ali Corbin
M: 3/4
L: 1/4
Q: 1/4=200
K: D Dorian
%%MIDI program 1       71 clarinet
%%MIDI program 2       74 flute
%%%%MIDI program 3       70 bassoon
%%MIDI program 3       68
V:1 clef=treble
V:2 clef=treble
V:3 clef=treble
[V:1]  D3|(A3/2B/c/B/)|(BAG) |A3 |B3|c3|(B/A/GF)|(G/A/B/c/B/A/)|
w:    Vir- gen***       Ma-**dre gro-ri- o-***    sa,*****
[V:2]  (AG/FE/)|D3|E3|(FG/AF/)|(E3/2F/G/A/)|A3|B3|d3|
[V:3]  d3|c3|B3|A3|G3|F3|E3|D3|
%
[V:1]  D3|(A3/2B/c/B/)|(BAG)|A3 |B3|c3|(B/A/GF)|(G/A/B/c/B/A/)| 
w:     de  Deus***      fi-**lla e  e-  spo-***  sa,*****
[V:2]  d3|c3|B3|A3|G3|F3|E3|D3|
[V:3]  (AG/FE/)|D3|E3|(FG/AF/)|(E3/2F/G/A/)|A3|B3|d3|
[V:1] (AGA/B/)|(AG2)|(G/FE/D)|E3 | F3|(GFG/A/)|(G/F/ED)|(EDC) |
w:     san-***  ta,*  no-***  bre, pre- ci-***   o-***    sa,**
[V:2]  D3|(E3/2F/G/A/)|A3|B3|(c3/2d/e/d/)|c3|d3|c3|
[V:3]  d3|(c2B)|(AG3/2F/)|(F/ED/C)|C3|C3|(D/E/F/G/A/B/)|A3|
[V:1]   C3 |D3|E3|F3|G3|F3|(E/D/E2)|D3 |
w:     quen te lo-ar sa-be- ri-**   a	
[V:2]   (c/B/A>G)|(A3/2B/c/B/)|(B3/2c/d/c/)|c3|d3|c3|B3|(BAG)|
[V:3]   G3|F3|E3|C3|(D/EF/G)|(AB/cd/)|e3|d3|
[V:1]  c3|d3|(c/B/AB/c/)|(d/BA/G)|
w:     ou po- di-****     a?***   
[V:2]  (A/GF/E)|D3|A3|B3|
[V:3]  c3|(BAG)|F3|E3|
[V:1]  B3| G3|(B2c/d/)|d2 c  |A3|F3|(G/F/E/D/C)|
w:     Ca Deus que**   é lum' e  di- a,****	 
[V:2]  B3|d3|e3| A3|(B/AG/F)|(G/FE/D)|C3|
[V:3] (ED/EF/)|(G/F/ED)|(EDC)|D3|E3|F3|(GA/B/c)|
[V:1]  C3| D3  |E3|F3| G3|F3|(E/D/E2)|D3|
w:     se-gund' a  no-ssa na- tu-**   ra
[V:2] (G3/2A/B/c/)|(dc/B/A)|(B3/2c/d/c/)|c3|(dcB)|(cBA)|B3|d3|
[V:3]   c3|A3|G3|(FG/FE/)|D3|(CD/EF/)|(G3/2A/B/A/)|A3|
[V:1]   E  G2| E  G2|A3|(c/B/A3/2G/)|(FED)|(EDC)|
w:     non vi-ra-mos sa  fi-***       gu-** ra**
[V:2]  (c/BA/G)|(A/GF/E)|D3|C3|D3|(EFG)|
[V:3]  (G2E)|(C2E)|(FG/AB/)|c3|A3|c3|
[V:1]  C3| D3|C3 |D3 | E3| F3 |(AG2)|(G/F/ED)|(EF/ED/)|D3|
w:     se-non por ti, que fust' al-*  ****     ****    va.
[V:2]  G3|(FG/AB/)|c3|(cB/cd/)|e3|c3|(c3/2d/e/d/)|c2d|e3|d3|
[V:3]  (d/cB/A)|A3|(G3/2A/B/A/)|A3|(B2A)|(G/FE/D)|C3|(DEF/G/)|(A2B)|A3|
